src/assets/images/skills/node.svg

<?xml version="1.0" encoding="UTF-8" standalone="no"?>
<svg width="64px" height="64px" viewBox="0 0 64 64" version="1.1" xmlns="http://www.w3.org/2000/svg" xmlns:xlink="http://www.w3.org/1999/xlink">
    <defs></defs>
    <g id="Frameworks" stroke="none" stroke-width="1" fill="none" fill-rule="evenodd">
        <g id="icons/skills/id-286" fill="#83CD29">
            <path d="M31.2550464,59.7120927 C30.522596,59.7120927 29.7934834,59.5207285 29.1526358,59.1498675 L22.4582252,55.188702 C21.4591258,54.6294437 21.9471788,54.4317748 22.2765033,54.3168079 C23.6104901,53.8543444 23.880106,53.7475364 25.3034702,52.9398013 C25.4518146,52.8567285 25.648,52.8886225 25.8011656,52.978 L30.943894,56.0316689 C31.1304371,56.1351391 31.3933775,56.1351391 31.5647152,56.0316689 L51.6145695,44.4593245 C51.8007417,44.3525166 51.9209007,44.1374172 51.9209007,43.916755 L51.9209007,20.778 C51.9209007,20.551404 51.8007417,20.3403841 51.6097483,20.2254172 L31.568053,8.66308609 C31.3833642,8.5547947 31.1371126,8.5547947 30.9505695,8.66308609 L10.9140662,20.228755 C10.7193642,20.3403841 10.5962384,20.5584503 10.5962384,20.778 L10.5962384,43.916755 C10.5962384,44.1374172 10.7193642,44.3476954 10.9125828,44.4522781 L16.4050331,47.626106 C19.3849007,49.1154834 21.2095364,47.3609404 21.2095364,45.5978675 L21.2095364,22.7524636 C21.2095364,22.4294437 21.4691391,22.1746623 21.7921589,22.1746623 L24.3344106,22.1746623 C24.6522384,22.1746623 24.9155497,22.4294437 24.9155497,22.7524636 L24.9155497,45.5978675 C24.9155497,49.575351 22.749351,51.8565166 18.9788079,51.8565166 C17.8198675,51.8565166 16.9075497,51.8565166 14.3604768,50.6011523 L9.10278146,47.5738146 C7.80402649,46.8231921 7,45.4194834 7,43.916755 L7,20.778 C7,19.2745298 7.80402649,17.8711921 9.10278146,17.1239073 L29.1526358,5.53821192 C30.4209801,4.82059603 32.1076556,4.82059603 33.3667285,5.53821192 L53.4139868,17.1239073 C54.7131126,17.8749007 55.520106,19.2745298 55.520106,20.778 L55.520106,43.916755 C55.520106,45.4194834 54.7131126,46.8183709 53.4139868,47.5738146 L33.3667285,59.1498675 C32.7255099,59.5207285 31.9982517,59.7120927 31.2550464,59.7120927 L31.2550464,59.7120927 Z M47.4442384,36.9008079 C47.4442384,32.5702649 44.517404,31.4165166 38.3555497,30.6024768 C32.1295364,29.7784238 31.4968477,29.3537881 31.4968477,27.8951921 C31.4968477,26.6917483 32.0327417,25.0851788 36.6443974,25.0851788 C40.7635497,25.0851788 42.2814834,25.972649 42.9056424,28.7496556 C42.9605298,29.0107417 43.1986225,29.202106 43.4686093,29.202106 L46.0705695,29.202106 C46.2322649,29.202106 46.3854305,29.1323841 46.4952053,29.0174172 C46.6049801,28.8942914 46.6632053,28.7363046 46.648,28.5712715 C46.245245,23.7879073 43.0673377,21.5590331 36.6443974,21.5590331 C30.9272053,21.5590331 27.5178808,23.9714834 27.5178808,28.0168344 C27.5178808,32.4056026 30.9105166,33.6175762 36.3966623,34.1605166 C42.9605298,34.8028477 43.4700927,35.761894 43.4700927,37.0539735 C43.4700927,39.2950861 41.6721589,40.2507947 37.4484238,40.2507947 C32.1425166,40.2507947 30.9754172,38.9182914 30.5841589,36.2796159 C30.5396556,35.996649 30.2982252,35.788596 30.0082119,35.788596 L27.415894,35.788596 C27.0947285,35.788596 26.8369801,36.0448609 26.8369801,36.3660265 C26.8369801,39.7441987 28.6749669,43.7717483 37.4484238,43.7717483 C43.8012715,43.7717483 47.4442384,41.2691788 47.4442384,36.9008079 L47.4442384,36.9008079 Z M56.2562649,13.4364371 L56.2562649,13.8354834 L57.3847947,13.8354834 L57.3847947,16.7879073 L57.8416954,16.7879073 L57.8416954,13.8354834 L58.9743046,13.8354834 L58.9743046,13.4364371 L56.2562649,13.4364371 L56.2562649,13.4364371 Z M59.3792848,16.7879073 L59.8131921,16.7879073 L59.8131921,14.810106 C59.8131921,14.7296291 59.8087417,14.6057616 59.8050331,14.4388742 C59.7994702,14.2693907 59.7994702,14.1440397 59.7994702,14.0613377 L59.7994702,13.9604636 L60.7659338,16.7879073 L61.2146755,16.7879073 L62.1726093,13.9604636 C62.1726093,14.140702 62.1703841,14.3105563 62.1659338,14.4715099 C62.1640795,14.6280132 62.162596,14.7411258 62.162596,14.810106 L62.162596,16.7879073 L62.5961325,16.7879073 L62.5961325,13.4364371 L61.9500927,13.4364371 L60.9925298,16.2690728 L60.0297748,13.4364371 L59.3792848,13.4364371 L59.3792848,16.7879073 L59.3792848,16.7879073 Z" id="Imported-Layers"></path>
        </g>
    </g>
</svg>

<svg xmlns="http://www.w3.org/2000/svg" width="64" height="64" xmlns:v="https://vecta.io/nano"><path d="M31.255 59.712c-.732 0-1.462-.19-2.102-.562l-6.694-3.96c-1-.56-.51-.757-.182-.872 1.334-.462 1.604-.57 3.027-1.377.148-.083.345-.05.498.038l5.143 3.054a.66.66 0 0 0 .621 0l20.05-11.572c.186-.107.306-.322.306-.543v-23.14a.65.65 0 0 0-.311-.553L31.568 8.663a.63.63 0 0 0-.617 0L10.914 20.23c-.195.112-.318.33-.318.55v23.14c0 .22.123.43.316.536l5.492 3.174c2.98 1.49 4.805-.265 4.805-2.028V22.752c0-.323.26-.578.583-.578h2.542a.58.58 0 0 1 .581.578v22.845c0 3.977-2.166 6.26-5.937 6.26-1.16 0-2.07 0-4.618-1.255l-5.258-3.027C7.804 46.823 7 45.42 7 43.917v-23.14c0-1.503.804-2.907 2.103-3.654l20.05-11.586c1.268-.718 2.955-.718 4.214 0l20.047 11.586a4.23 4.23 0 0 1 2.106 3.654v23.14c0 1.503-.807 2.902-2.106 3.657L33.367 59.15a4.21 4.21 0 0 1-2.112.562h0zm16.19-22.81c0-4.33-2.927-5.484-9.09-6.298-6.226-.824-6.86-1.25-6.86-2.707 0-1.203.536-2.8 5.148-2.8 4.12 0 5.637.887 6.26 3.664.055.26.293.452.563.452h2.602a.59.59 0 0 0 .425-.185c.1-.123.168-.28.153-.446-.403-4.783-3.58-7.012-10.004-7.012-5.717 0-9.127 2.412-9.127 6.458 0 4.39 3.393 5.6 8.88 6.144 6.564.642 7.073 1.6 7.073 2.893 0 2.24-1.798 3.197-6.022 3.197-5.306 0-6.473-1.333-6.864-3.97a.58.58 0 0 0-.576-.491h-2.592c-.32 0-.58.256-.58.577 0 3.378 1.838 7.406 10.61 7.406 6.353 0 9.996-2.503 9.996-6.87h0zm8.812-23.464v.4h1.13v2.952h.457v-2.952h1.133v-.4h-2.718zm3.123 3.35h.434V14.8c0-.08-.004-.204-.008-.37s-.006-.295-.006-.378v-.1l.966 2.827h.45l.958-2.827-.007.51-.003.34v1.978h.434v-3.35h-.646l-.958 2.833-.963-2.833h-.65v3.35z" fill="#83cd29" fill-rule="evenodd"/></svg>
